!!!!SEGMENT: 028-1-BH-017.krn
!!!COM: Chopin, Fryderyk
!!!OTL: Preludium No. 17
!!!OPS: Op. 28
!!!PTL: Vingt-quatre PRELUDES pour le Piano
!!!PPR: Breitkopf & Härtel
!!!PPP: Leipzig
!!!AGN: Prelude
!!!NIFC-rismID: 1001013144
!!!NIFC-shelfmark: PL-Wbfc 4372/n
!!!OMD: Allegretto.
**kern	**kern	**dynam
*part1	*part1	*part1
*staff2	*staff1	*S
*clefF4	*clefG2	*
*k[b-e-a-d-]	*k[b-e-a-d-]	*
*A-:	*A-:	*
*M6/8	*M6/8	*
*MM114	*MM114	*
=1	=1	=1
*ped	*	*
!	!	!LO:DY:rj
8e-L 8A- 8E-	(>8cL	p
8e- 8A- 8E-	8c	.
8e-J 8A- 8E-	8cJ	.
8e-L 8A- 8E-	8cL	.
8e- 8A- 8E-	8c	.
8e-J 8A- 8E-	8cJ	.
=2	=2	=2
8e-L 8A- 8E-	8cL	.
8e- 8A- 8E-	8c	.
8e-J 8A- 8E-	8cJ	.
8e-L 8A- 8E-	8cL	.
8e- 8A- 8E-	8c	.
*Xped	*	*
8e-J 8A- 8E-	8cJ	.
=3	=3	=3
*ped	*	*
8EE-L\	8d-L	.
8e-\ 8B- 8E-	8g 8d-	.
8e-J 8B- 8E-	8ccJ 8d-	.
8e-L 8B- 8E-	8dd-L 8d-	.
8e- 8B- 8E-	8f 8d-	.
*Xped	*	*
8e-J 8B- 8E-	8gJ 8d-	.
=4	=4	=4
*	*^	*
*ped	*	*	*
8AA-L	4.b-	8re	.
8e- 8A-	.	8g-XL 8c	.
8e-J 8A-	.	8g-J 8c	.
*tremolo	*	*	*
!LO:TX:t=P:przez pedalizację nie wyświetla się poprawnie tremolo; w kolejnych taktach podobnie:problem	!	!	!
8e-L 8A-	[4.a-	8g-L 8c	.
8e- 8A-	.	8g- 8c	.
*Xped	*	*	*
8e-J 8A-	.	8g-J 8c)	.
*Xtremolo	*	*	*
*	*v	*v	*
=5	=5	=5
*ped	*	*
8D-L	(>8a-L]	.
8f 8d- 8A-	8dd- 8a-	.
8fJ 8d- 8A-	8ggJ 8a-	.
*tremolo	*	*
8fL 8d-	8bb-L 8a-	.
8f 8d-	8aa- 8a-	.
*Xped	*	*
8fJ 8d-	8ffJ 8a-	.
*Xtremolo	*	*
=6	=6	=6
*	*^	*
*ped	*	*	*
8E-L	4.ee-^	8rg	.
*clefG2	*	*	*
8g 8d- 8B-	.	8b-L 8e-	.
8gJ 8d- 8B-	.	8b-J 8e-	.
*Xped	*	*	*
.	.	.	.
*clefF4	*	*	*
*ped	*	*	*
8D-L	[4.ff^	8rg	.
*clefG2	*	*	*
8a- 8d- 8A-	.	8dd-L 8f	.
8a-J 8d- 8A-	.	8dd-J 8f	.
*Xped	*	*	*
.	.	.	.
*clefF4	*	*	*
*	*v	*v	*
!!LO:LB:g=original
=7	=7	=7
*ped	*	*
8E-L	8ffL]	.
*clefG2	*	*
8g 8d- 8B-	8b-	.
8gJ 8d- 8B-	8ee-J 8b- 8e-	.
8gL 8d- 8B-	8ggL 8b-	.
8g 8d- 8B-	8ff 8b-	.
8gJ 8d- 8B-	8dd-J 8b-	.
*Xtremolo	*	*
*Xped	*	*
.	.	.
*clefF4	*	*
=8	=8	=8
*^	*^	*
*ped	*	*	*	*
4.F	8FL	4.cc^	8re	.
.	8f 8c	.	8anL 8e-	.
*Xped	*	*	*	*
.	8fJ 8c	.	8aJ 8e-	.
*ped	*	*	*	*
4.ryy	8BB-L	[4.dd-^	8re	.
.	8f 8B- 8F	.	8a-XL 8d-	.
*Xped	*	*	*	*
.	8fJ 8B- 8F	.	8a-J 8d-	.
*	*	*v	*v	*
=9	=9	=9	=9
*ped	*	*	*
4.E-	8E-L	8dd-L]	.
.	8f 8B-	8a- 8d-	.
*Xped	*	*	*
.	8e-J 8B-	8b-J 8g 8d-	.
*ped	*	*	*
4.ryy	8AA-L	8dd-L	.
.	8e- 8A- 8E-	8cc 8a- 8c	.
*Xped	*	*	*
.	8e-J 8A- 8E-	8a-J 8f 8c	.
*v	*v	*	*
=10	=10	=10
*	*^	*
*ped	*	*	*
!LO:TX:t=P:problem:mixed beam	!	!	!
8EE-L/	[>2.b-)	8re	.
8e-\ 8E-\	.	8gL 8B-	.
8e-J\ 8E-\	.	8gJ 8B-	.
*tremolo	*	*tremolo	*
8e-L 8E-	.	8gL 8B-	.
8e- 8E-	.	8g 8B-	.
*Xped	*	*	*
8e-J 8E-	.	8gJ 8B-)	.
*Xtremolo	*	*	*
*	*v	*v	*
=11	=11	=11
8EE-L\	(>8b-L]	f
8e-\ 8B- 8E-	8b- 8g 8d-	.
8e-J 8B- 8E-	8ccJ 8g 8d-	.
*tremolo	*	*
8e-L 8B- 8E-	8dd-L 8d-	.
8e- 8B- 8E-	8f 8d-	.
8e-J 8B- 8E-	8gJ 8d-	.
*Xtremolo	*	*
=12	=12	=12
*	*^	*
8AA-L	4.b-	8re	.
*	*	*Xtremolo	*
8e- 8A- 8E-	.	8g-XL 8c	.
8e-J 8A- 8E-	.	8g-J 8c	.
*tremolo	*	*	*
8e-L 8A- 8E-	[>4.a-	8g-L 8c	.
8e- 8A- 8E-	.	8g- 8c	.
8e-J 8A- 8E-	.	8g-J 8c	.
*Xtremolo	*	*	*
*	*v	*v	*
!!LO:LB:g=original
=13	=13	=13
!LO:TX:t=P:problem:mixed beam	!LO:TX:t=P:ligature:problem:zakończenie ligatury przy 8a- w dół	!
8DD-L/	8a-L]	.
8f\ 8d-\ 8A-\ 8F\	8dd- 8a-	.
8fJ\ 8d-\ 8A-\ 8F\	8ggJ 8dd- 8a-	.
8fL 8d- 8A- 8F	8bb-L 8dd- 8a-	.
8f 8d- 8A- 8F	8aa- 8dd- 8a-	.
8fJ 8d- 8A- 8F	8ffJ 8dd- 8a-	.
=14	=14	=14
*	*^	*
8E-L	4.ee-^	8rg	.
*clefG2	*	*	*
8g 8d- 8B-	.	8b-L 8e-	.
8gJ 8d- 8B-	.	8b-J 8e-	.
*clefF4	*	*	*
8D-L	[>4.ff^	8rg	.
*clefG2	*	*	*
8a- 8d- 8A-	.	8dd-L 8f	.
8a-J 8d- 8A-	.	8dd-J 8f	.
*clefF4	*	*	*
*	*v	*v	*
=15	=15	=15
8E-L	8ffL]	.
*clefG2	*	*
8g 8d- 8B-	8b- 8e-	.
8gJ 8d- 8B-	8ee-J 8b- 8e-	.
8gL 8e- 8d- 8B-	8ggL 8b-	.
8g 8e- 8d- 8B-	8ff 8b-	.
8gJ 8d- 8B-	8dd-J 8b- 8e-	.
*clefF4	*	*
=16	=16	=16
*	*^	*
8FFL	4.cc	8re	.
8f 8c 8F	.	8anL 8e-	.
8fJ 8c 8F	.	8aJ 8e-	.
8BB-L	[4.dd-	8re	.
8f 8B- 8F	.	8a-XL 8d-	.
8fJ 8B- 8F	.	8a-J 8d-	.
=17	=17	=17	=17
8E-L	8dd-L]	4.ryy	.
8f 8B- 8F	8d-	.	.
8fJ 8B- 8F	8a-J 8d-	.	.
8EE-L	8ccL	8re	.
8e- 8B- 8E-	8.b-	8gL 8d-	.
8e-J 8B- 8E-	.	8gJ 8d-	.
.	16a-Jk	.	.
!!LO:LB:g=original
=18	=18	=18	=18
*ped	*	*	*
8AA-L	2.a-	8rc	.
8e- 8A- 8E-	.	8cL	.
8e-J 8A- 8E-	.	8cJ	.
*Xtremolo	*	*	*
8e-L 8A- 8E-	.	8cL	.
8e- 8A- 8E-	.	8c	.
8e-J 8A- 8E-	.	8cJ)	.
*Xped	*	*	*
.	.	.	.
=19	=19	=19	=19
*ped	*	*	*
!LO:TX:t=P:problem:mixed beam	!	!	!
8EEnL/	4.g#X	8ryy	.
!	!	!LO:TX:a:Bi:t=cres_cen_do.:problem:dynamics with extention lines	!
!	!LO:TX:t=P:problem:w t.19-21 przesunięte piony w źródle	!	!LO:HP:a:Bi:t=cres-cen-do.
8en>\ 8Bn\ 8En\	.	(>8dnL/ 8G#X<	<
8e>J\ 8B\ 8E\	.	8dJ 8G#<	.
*Xped	*	*	*
.	.	.	.
8e>L 8B 8E	8g#L 8d 8G#<	4.ryy	.
8e> 8B 8E	8f 8d 8G#<	.	.
8BJ 8E	8enyJ 8G#<	.	.
=20	=20	=20	=20
*ped	*	*	*
8AAnL	2.cc#X	8re	.
8en> 8An 8En	.	8anL/ 8c#X	.
*Xped	*	*	*
8e#X>J 8A 8E#X	.	8aJ 8c#	.
8e#>L 8A 8E#	.	8aL/ 8c#	.
8f#X> 8A 8F#X	.	8a 8c#	.
8f##X>J 8A 8F##X	.	8aJ 8c#)	.
=21	=21	=21	=21
*ped	*	*	*
!	!LO:N:vis=4.	!	!
8GG#XL	(>4cc#X	8re	.
8f#X> 8d#X> 8G#y	.	8g#XL 8c#X	.
8d#>J 8B#> 8G#	8b#X	8g#J 8B#X	.
*Xped	*	*	*
.	.	.	.
8a->L 8f#> 8G#	8b#L 8g# 8B#	4.ryy	.
8f#> 8d#> 8G#	8an 8B#	.	.
8f#>J 8d#> 8G#	8g#J 8B#	.	.
!!LO:LB:g=original
=22	=22	=22	=22
*ped	*	*	*
8C#XL	2.een	8rg	.
*clefG2	*	*	*
8f##X 8c#X 8F##X	.	8cc#XL 8en	.
8g#XJ 8c# 8G#X	.	8cc#J 8e	.
*Xped	*	*	*
.	.	.	.
8g#L 8c# 8G#	.	8cc#L 8e	.
8an 8c# 8An	.	8cc# 8e	.
8a#XJ 8cn 8A#X	.	8ccnJ 8e)	.
=23	=23	=23	=23
*clefF4	*	*	*
*ped	*	*	*
8BBnL	(>4een	8rg	.
*clefG2	*	*	*
8an 8f#X 8Bny	.	8bnL 8eny	.
8aJ 8f# 8d#X 8B	8dd#X	8bJ	.
*Xped	*	*	*
.	.	.	.
*Xtremolo	*	*	*
8aL 8f# 8d# 8B	8dd#L\ 8b	4.ryy	.
8a 8f# 8c#X 8B	8cc#X 8b	.	.
8aJ 8f# 8d# 8B	8bJ)	.	.
!LO:CL:ed	!	!	!
*clefF4	*	*	*
=24	=24	=24	=24
*ped	*	*	*
8EnL	(>4gg#X	8r	[
*clefG2	*	*	*
!	!	!LO:TX:Bi:b:t=dim_:problem:dynamics with extention lines	!
!	!	!	!LO:HP:Bi:t=dim:ext=ud
8bn 8en 8Bn	.	8cc##XL 8g#X	>
8a#XJ 8e 8A#X	8gg#	8cc##J 8g#	.
*Xped	*	*	*
.	.	.	.
*clefF4	*	*	*
*ped	*	*	*
8D#XL	8gg#L	8r	.
*clefG2	*	*	*
8a#X 8d#X 8A#X	8ff##X	8dd#XL 8f##X	.
8a#J 8d# 8A#	8dd#J)	8f##J	.
*Xped	*	*	*
.	.	.	.
*clefF4	*	*	*
!!LO:LB:g=original
=25	=25	=25	=25
*ped	*	*	*
8DnL	(>4ff#X	8re	.
*clefG2	*	*	*
8an 8dn 8An	.	8b#XL 8f#X	.
8g#XJ 8d 8G#	8ff#	8b#J 8f#	.
*Xped	*	*	*
.	.	.	.
*clefF4	*	*	*
*ped	*	*	*
8C#XL	8ff#L	8rf	.
*clefG2	*	*	*
8g#X 8c#X 8G#X	8ee#X	8cc#XL 8e#X	.
8g#J 8c# 8G#	8cc#J	8cc# 8e#J	.
*Xped	*	*	*
.	.	.	.
*clefF4	*	*	*
=26	=26	=26	=26
*ped	*	*	*
8CnL	8eenL	8rf	.
.	.	.	]
*clefG2	*	*	*
8gn 8cn 8Fn	8dd#X	8a#XL 8d#X	<
8f#XJ 8c 8F#X	8eeJ	8a#J 8en	.
*Xped	*	*	*
.	.	.	.
*clefF4	*	*	*
*ped	*	*	*
8BBnL	4gg#X	8rf	.
.	.	.	[
*clefG2	*	*	*
8bn 8en 8Bn	.	8eeL 8g#X	.
8anJ 8d#y 8B	8ff#X	8bnyJ 8f#X	.
*Xped	*	*	*
.	.	.	.
*clefF4	*	*	*
*ped	*	*	*
=27	=27	=27	=27
!LO:TX:t=P:problem:mixed beam	!	!	!
8EEnL/	[2.een	8rg	.
!	!	!	!LO:HP:b=2
.	.	.	<
8g#X\ 8Bn\ 8G#X\	.	8bnL 8en	.
8g#J\ 8B\ 8G#\	.	8bJ 8e	.
8g#L 8B 8G#	.	8bL 8e	.
8g# 8B 8G#	.	8b 8e	.
*Xped	*	*	*
8g#J 8B 8G#	.	8bJ 8e	.
.	.	.	[
!!LO:PB:g=original
=28	=28	=28	=28
*ped	*	*	*
!	!LO:TX:a:t=P:problem:brak zakończenia 1 łuku lub ligatury	!	!
8EnL	(>8eenXL])	8rg	.
*clefG2	*	*	*
8an 8cn 8An	8ee	8ccL 8en	.
8aJ 8c 8A	8dd#XJ	8ccJ 8d#X	.
*tremolo	*	*	*
8aL 8c 8A	8ff#XL	8ccL 8f#X	.
8a 8c 8A	8ee	8cc 8e	.
8aJ 8c 8A	8ccJ	8eJ	.
*Xped	*	*	*
.	.	.	.
*clefF4	*	*	*
=29	=29	=29	=29
*ped	*	*	*
8EEnL	[2.een^	8rg	.
*clefG2	*	*	*
8g#X 8Bn 8G#X	.	8bnL 8en	.
8g#J 8B 8G#	.	8bJ 8e	.
*	*	*tremolo	*
8g#L 8B 8G#	.	8bL 8e	.
8g# 8B 8G#	.	8b 8e	.
8g#J 8B 8G#	.	8bJ 8e	.
*Xped	*	*Xtremolo	*
.	.	.	.
*clefF4	*	*	*
=30	=30	=30	=30
*ped	*	*	*
8EnL	8eenXL]	8rg	.
*clefG2	*	*	*
8an 8cn 8An	8ee	8ccL 8en	.
8aJ 8c 8A	8dd#XJ	8ccJ 8d#X	.
8aL 8c 8A	8ff#XL	8ccL 8f#X	.
8a 8c 8A	8ee	8cc 8e	.
8aJ 8c 8A	8ccJ	8cc 8eJ	.
*Xped	*	*	*
.	.	.	.
*clefF4	*	*	*
=31	=31	=31	=31
*ped	*	*	*
8EEnL	[2.een^	8re	.
*clefG2	*	*Xtremolo	*
8g#X 8Bny 8G#X	.	8bnL 8en	.
.	.	.	<
8g#J 8B 8G#	.	8bJ 8e	.
*	*	*tremolo	*
8g#L 8B 8G#	.	8bL 8e	.
8g# 8B 8G#	.	8b 8e	.
8g#J 8B 8G#	.	8bJ 8e	.
!!LO:LB:g=original
=32	=32	=32	=32
*tremolo	*	*	*
!LO:TX:t=P:tremolo nie wyświetla się przez pedalizację:problem	!LO:TX:a:t=P:ligature:problem:brak zakończenia ligatury przy 4.een	!	!
8g#XL 8Bn 8G#X	4.eenX]	8bnL 8en	.
8g# 8B 8G#	.	8b 8e	.
*	*	*	*
8g# 8B 8G#	.	8bJ 8e	.
*Xped	*	*Xtremolo	*
8g# 8B 8G#	4dd#X^	8bL 8d#X	.
8g# 8B 8G#	.	8b 8d#	.
8g#J 8B 8G#	8dd#	8bJ 8d#	.
*Xtremolo	*	*	*
=33	=33	=33	=33
*ped	*	*	*
2.a-XL 2.c- 2.A-X	2.ee-X	8cc-XL 8e-X	.
.	.	8cc- 8e-	.
.	.	8cc-J 8e-	.
*	*	*tremolo	*
.	.	8cc-L 8e-	.
.	.	8cc- 8e-	.
.	.	8cc-J 8e-	.
*Xped	*	*Xtremolo	*
.	.	.	[
=34	=34	=34	=34
*ped	*	*	*
8a-L 8c-X 8A-	2.ddn	8cc-XL 8dn	.
*clefF4	*	*	*
8F 8FF	.	8cc- 8a- 8d	.
8DnJ 8DDn	.	8cc-J 8a- 8d	<
*	*	*tremolo	*
8C-XL 8CC-X	.	8cc-L 8a- 8d)	.
8AA- 8AAA-	.	8cc- 8a- 8d	.
8FFJ 8FFF	.	8cc-J 8a- 8d	.
*Xped	*	*Xtremolo	*
*	*v	*v	*
=35	=35	=35
!LO:TX:t=P:problem:mixed beam	!	!
8EE-L/ 8EEE-/	8gL 8d-	ff
*ped	*	*
8e-\ 8B-\ 8E-\	8g 8d-	.
8e-J\ 8B-\ 8E-\	8ccJ 8g 8d-	.
*Xtremolo	*	*
8e-L 8B- 8E-	8dd-L 8g 8d-	.
8e- 8B- 8E-	8f 8d-	.
8e-J 8B- 8E-	8gJ 8d-	.
*Xped	*	*
.	.	.
=36	=36	=36
*	*^	*
!LO:TX:t=P:problem:mixed beam	!	!	!
8AA-L/ 8AAA-/	4.b-	8re	.
*Xtremolo	*	*Xtremolo	*
8e-\ 8A-\ 8E-\	.	8g-XL 8c	.
8e-J\ 8A-\ 8E-\	.	8g-J 8c	.
8e-L 8A- 8E-	[4.a-	8g-L 8c	.
8e- 8A- 8E-	.	8g- 8c	.
8e-J 8A- 8E-	.	8g-J) 8c	.
*	*v	*v	*
!!LO:LB:g=original
=37	=37	=37
!LO:TX:t=P:problem:mixed beam	!	!
8DD-L/ 8DDD-/	(>8a-L] 8f	.
8f\ 8d-\ 8A-\ 8F\	8dd- 8a-	.
8fJ\ 8d-\ 8A-\ 8F\	8ggJ 8dd- 8a-	.
*tremolo	*	*
8fL 8d- 8A- 8F	8bb-L 8dd- 8a-	.
8f 8d- 8A- 8F	8aa- 8dd- 8a-	.
8fJ 8d- 8A- 8F	8ffJ 8dd- 8a-	.
*Xtremolo	*	*
=38	=38	=38
*	*^	*
!LO:TX:t=P:problem:mixed beam	!	!	!
8EE-L/ 8EEE-/	4.ee-^	8rg	.
8g\ 8B-\ 8G\	.	8b-L 8e-	.
8gJ\ 8B-\ 8G\	.	8b-J 8e-	.
!LO:TX:t=P:problem:mixed beam	!	!	!
8DD-L/ 8DDD-/	[[4.ff^	8rg	.
8a-\ 8d-\ 8A-\ 8F\	.	8dd-L 8f	.
8a-J\ 8d-\ 8A-\ 8F\	.	8dd-J 8f)	.
*	*v	*v	*
=39	=39	=39
!LO:TX:t=P:problem:mixed beam	!	!
8EE-L/ 8EEE-/	(>8ffL]]/	.
8g 8d-\ 8B-\ 8G\	8b- 8e-	.
8gJ\ 8d-\ 8B-\ 8G\	8ee-J 8b- 8e-	.
8gL 8e- 8d- 8B- 8G	8ggL/ 8b-	.
8g 8e- 8d- 8B- 8G	8ff 8b-	.
8gJ 8d- 8B- 8G	8dd-J 8b- 8e-)	.
=40	=40	=40
*	*^	*
!LO:TX:t=P:problem:mixed beam	!	!	!
8FFL/ 8FFF/	(>4.cc^	8re	.
8f\ 8c\ 8F\	.	8anL 8e-	.
8fJ\ 8c\ 8F\	.	8aJ 8e-	.
8BB-L 8BBB-	[4.dd-^	8re	.
8f 8B- 8F	.	8a-XL 8d-	.
8fJ 8B- 8F	.	8a-J 8d-	.
*	*v	*v	*
=41	=41	=41
8E-L 8EE-	8dd-L]	.
8f 8B- 8F	8a- 8d-	.
8e-J 8B- 8E-	8b-J 8g 8d-	.
8AA-L	8dd-L 8a- 8d-	.
8e- 8A- 8E-	8cc 8a- 8c	.
8e-J 8A- 8E-	8a-J 8f 8c	.
=42	=42	=42
*	*^	*
8EE-L	2.b-	8re	.
8e- 8E-	.	8gL 8B-	.
8e-J 8E-	.	8gJ 8B-	.
*tremolo	*	*tremolo	*
8e-L 8E-	.	8gL 8B-	.
8e- 8E-	.	8g 8B-	.
8e-J 8E-	.	8gJ 8B-	.
*Xtremolo	*	*	*
!!LO:LB:g=original
=43	=43	=43	=43
*ped	*	*	*
8DD#XL	4.bn	8re	p
*tremolo	*Xtremolo	*Xtremolo	*
8d#X 8An 8D#X	.	8f#XL 8Bn	.
8d#J 8A 8D#	.	8f#J 8B	.
.	16qqb/LL	.	.
.	16qqcc#/JJ	.	.
*tremolo	*	*	*
8d#L 8A 8D#	8bL	8f#L 8B	.
8d# 8A 8D#	8a#X	8f# 8A#X	.
8d#J 8A 8D#	8bJ	8f#J 8B	.
*Xped	*	*	*
.	.	.	.
*Xtremolo	*	*	*
=44	=44	=44	=44
*ped	*	*	*
8EEnL	4.cc#X	8re	.
8en 8G#X 8En	.	8g#XL 8c#	.
8eJ 8G# 8E	.	8g#J 8c#	.
8eL 8G# 8E	4.bn	8g#L 8Bn	.
*Xped	*	*	*
.	.	.	.
8d#X 8G# 8E	.	8g#	.
8c#J 8G# 8E	.	8g#J)	.
*	*v	*v	*
=45	=45	=45
*ped	*	*
8BBnL 8BBBn	(>8bnL	.
*clefG2	*	*
8an 8d#X 8Bn	8b 8f#X	<
8aJ 8d# 8B	8cc#XJ 8b 8f#	.
8aL 8d# 8B	8dd#XL/ 8b 8f#	.
*Xped	*	*
.	.	.
8a 8c# 8B	8een 8b 8f#	.
8aJ 8d# 8B	8ff#J 8b 8f#	.
.	.	[
=46	=46	=46
*clefF4	*	*
*	*^	*
*ped	*	*	*
8EnL 8EEn	[2.gg#	8rg	.
*clefG2	*	*	*
8bn 8en 8Bn	.	8eenL 8g#X	.
8bJ 8e 8B	.	8eeJ 8g#	.
8bL 8e 8B	.	8eeL 8g#	<
*clefF4	*	*	*
*Xped	*	*	*
.	.	.	.
8D#X 8DD#X	.	8ee 8bn 8g#	.
8DnJ 8DDn	.	8eeJ 8b 8g#	.
.	.	.	[
*	*v	*v	*
!!LO:LB:g=original
=47	=47	=47
!	!LO:TX:a:t=P:problem:brak zakończenia 1 ligatury	!
*ped	*	*
8C#XL 8CC#X	8gg#XL])	.
8e#X 8Bn 8E#X	(>8c#X	.
8e#J 8B 8E#	8cc#J 8g# 8c#	.
.	(<16qqcc#/LL	.
.	16qqdd#X/JJ	.
*tremolo	*	*
8e#L 8B 8E#	8cc#L 8g# 8c#)	.
8e# 8B 8E#	8b#X 8g# 8B#X	.
*Xped	*	*
.	.	.
8e#J 8B 8E#	8cc#J 8g# 8c#	.
*Xtremolo	*	*
=48	=48	=48
*	*^	*
*ped	*	*	*
8FF#XL	4.dd#X	8re	.
8f#X 8A#X 8F#X	.	8a#XL 8c#X	.
8f#J 8A# 8F#	.	8a#J 8c#	.
*	*	*tremolo	*
8f#L 8A# 8F#	4.cc#	8a#L 8c#	.
*Xped	*	*	*
8e#X 8A# 8F#	.	8a# 8c#	.
8d#XJ 8A# 8F#	.	8a#J 8c#	.
*	*v	*v	*
=49	=49	=49
*ped	*	*
8C#XL 8CC#X	(>8cc#XL)	.
8g# 8c#X 8Bn 8G#X	8cc# 8bn 8e#X	.
.	.	<
8g#J 8c# 8B 8G#	8dd#XJ 8b 8e#	.
8g#L 8c# 8B 8G#	8ee#XL/ 8b 8e#	.
*Xped	*	*
.	.	.
8d#X 8c# 8B 8G#	8ff#X 8cc# 8b 8f#y	.
8e#XJ 8c# 8B 8G#	8gg#XJ 8cc# 8b 8g#	.
.	.	[
=50	=50	=50
*	*^	*
*ped	*	*	*
8FF#XL	2.aa#y	8rg	.
*	*	*Xtremolo	*
8f# 8c#X 8F#	.	8ff#XL 8a#X	.
8f#J 8c# 8F#	.	8ff#J 8a#	.
8F#L 8FF#	.	8ff#L 8cc# 8a#	<
*Xped	*	*	*
.	.	.	.
8E#X 8EE#X	.	8ff# 8cc# 8a#	.
8EnJ 8EEn	.	8ff#J 8cc# 8a#)	.
.	.	.	[
!!LO:LB:g=original
=51	=51	=51	=51
*ped	*	*	*
!	!	!LO:TX:Bi:b:t=dim_:problem:dynamics with extention lines	!
!	!	!	!LO:HP:Bi:t=dim:ext=ud
8D#XL 8DD#X	(>4.bbn	8rg	>
*clefG2	*	*	*
8f#X 8Bn	.	8ff#XL 8bn 8an	.
8f#J 8B	.	8ff#J 8b 8a	.
*Xped	*	*	*
.	.	.	.
*clefF4	*	*	*
*ped	*	*	*
8EnL	4gg#X	8rg	.
*clefG2	*	*	*
8bn 8en 8Bny	.	8eenL 8g#X	.
8bJ 8e 8B	8ryy	8eeJ 8g#	.
*Xped	*	*	*
=52	=52	=52	=52
*clefF4	*	*	*
*ped	*	*	*
8DnL	4.bb-X	8rg	.
*clefG2	*	*	*
8b-X 8f 8B-X	.	8ffnL 8a-X	.
8b-J 8f 8B-	.	8ffJ 8a-	.
*Xped	*	*	*
.	.	.	.
*clefF4	*	*	*
*ped	*	*	*
8E-XL	4.gg	8rg	.
*clefG2	*	*	*
8b- 8e- 8B-	.	8ee-XL 8g	.
8b-J 8e- 8B-	.	8ee-J 8g	.
*Xped	*	*	*
.	.	.	.
*clefF4	*	*	*
=53	=53	=53	=53
*ped	*	*	*
8C#XL	4.aan	8rg	]
*clefG2	*	*	*
8an 8en 8An	.	8eenL 8gn	.
8aJ 8e 8A	.	8eeJ 8g	.
*Xped	*	*	*
.	.	.	.
*clefF4	*	*	*
*ped	*	*	*
8DnL	[4.ff#X	8rg	.
*clefG2	*	*	*
8a 8dny 8A	.	8ddnL 8f#X	.
8aJ 8d 8A	.	8cc#XJ 8f#	.
!!LO:PB:g=original
=54	=54	=54	=54
8anL 8dn 8An	(>2.ff#X])	8b#XL 8f#X	<
*clefF4	*	*	*
8Dn 8DDn	.	8b# 8an 8f#	.
*Xped	*	*	*
.	.	.	.
(<8C#XJ 8CC#X	.	8cc#XJ 8a 8f#	.
8CnL 8CCn	.	8ddnL 8a 8f#	.
8C 8CC	.	8dd 8a 8f#	.
8C-XJ 8CC-X	.	8ee-XJ 8a 8f#	.
.	.	.	[
=55	=55	=55	=55
*ped	*	*	*
8BB-L 8BBB-)	[4.gg	8rg	f
*clefG2	*	*	*
8b- 8e- 8B-	.	8ee-L 8g	.
8b-J 8e- 8B-	.	8ee-J 8g	.
*Xped	*	*	*
.	.	.	.
*Xtremolo	*	*	*
*ped	*	*	*
8b-L 8en 8B-	8ggL]	8cc#XL 8g	.
8b- 8e 8B-	8aa-	8cc# 8g	.
8b-J 8e 8B-	8eenJ	8cc#J 8g	.
*Xped	*	*	*
.	.	.	.
=56	=56	=56	=56
*clefF4	*	*	*
*ped	*	*	*
8BB-L	8ggL	8rg	.
.	16qqff/LL	.	.
.	16qqgg/JJ	.	.
*clefG2	*	*	*
8b- 8f 8B-	8ff	8ddnL 8a-	.
8b-J 8f 8B-	8eenJ	8ddJ 8a-	.
8b-L 8f 8B-	8ffL	8ddL 8a-	.
8b- 8f 8B-	8gg	8dd 8a-	.
8b-J 8f 8B-	8ddJ	8a-J	.
=57	=57	=57	=57
*clefF4	*	*	*
*ped	*	*	*
!LO:TX:t=P:problem:mixed beam	!	!	!
8EE-L/	[2.ee-^)	8rg	.
8g\ 8B-\ 8G\	.	8b-L 8e-	.
8gJ\ 8B-\ 8G\	.	8b-J 8e-	.
8gL 8B- 8G	.	8b-L 8e-	.
8g 8B- 8G	.	8b- 8e-	.
8gJ 8B- 8G	.	8b-J 8e-	.
*Xped	*	*	*
.	.	.	.
!!LO:LB:g=original
=58	=58	=58	=58
*ped	*	*	*
8E-L	(>8ee-L]	8cc-XL 8e-	.
*clefG2	*	*	*
8a- 8c-X 8A-	8ee-	8cc- 8e-	.
8a-J 8c- 8A-	8ddnJ	8cc-J 8d	.
8a-L 8c- 8A-	8ffL	8cc-L 8f	.
8a- 8c- 8A-	8ee-	8cc- 8e-	.
8a-J 8c- 8A-	8cc-J	8e-J	.
*Xped	*	*	*
.	.	.	.
=59	=59	=59	=59
*clefF4	*	*	*
*ped	*	*	*
!LO:TX:t=P:problem:mixed beam	!	!	!
8EE-L/	[2.ee-)	8rg	.
8g\ 8B-\ 8G\	.	8b-L 8e-	.
8gJ\ 8B-\ 8G\	.	8b-J 8e-	.
8gL 8B- 8G	.	8b-L 8e-	.
8g 8B- 8G	.	8b- 8e-	.
8gJ 8B- 8G	.	8b-J 8e-	.
*Xped	*	*	*
.	.	.	.
=60	=60	=60	=60
*ped	*	*	*
8E-L	(>8ee-L]	8cc-XL 8e-	.
*clefG2	*	*	*
8a- 8c-X 8A-	8ee-	8cc- 8e-	.
8a-J 8A-	8ddnJ	8cc-J 8d	.
8a-L 8c- 8A-	8ffL	8cc-L 8f	.
8a- 8c- 8A-	8ee-	8cc- 8e-	.
8a-J 8c- 8A-	8cc-J	8e-J	.
*Xped	*	*	*
.	.	.	.
=61	=61	=61	=61
*clefF4	*	*	*
*ped	*	*	*
!LO:TX:t=P:problem:mixed beam	!	!	!
8EE-L/	[2.ee-)	8rg	.
8g\ 8B-\ 8G\	.	8b-L 8e-	.
8gJ\ 8B-\ 8G\	.	8b-J 8e-	.
!	!	!	!LO:HP:b=2
8gL 8B- 8G	.	8b-L 8e-	<
8g 8B- 8G	.	8b- 8e-	.
8gJ 8B- 8G	.	8b-J 8e-	.
=62	=62	=62	=62
*tremolo	*	*tremolo	*
8gL 8B- 8G	2.ee-]	8b-L 8e-	.
8g 8B- 8G	.	8b- 8e-	.
8g 8B- 8G	.	8b- 8e-	.
8g 8B- 8G	.	8b- 8e-	.
8g 8B- 8G	.	8b- 8e-	.
8gJ 8B- 8G	.	8b-J 8e-	[[
*	*v	*v	*
=63	=63	=63
!	!	!LO:HP:b=2
8gL 8B- 8G	8b-L 8e-	>
8g 8B- 8G	8b- 8e-	.
8g 8B- 8G	8b- 8e-	.
8g 8B- 8G	8b- 8e-	.
8g 8B- 8G	8b- 8e-	.
8gJ 8B- 8G	8b-J 8e-	.
=64	=64	=64
*	*tremolo	*
8gL 8B- 8G	(>8b-L (<8e-	.
8g 8B- 8G	8b- 8e-	.
8g 8B- 8G	8b- 8e-	.
8g 8B- 8G	8b- 8e-	.
8g 8B- 8G	8b- 8e-	.
8gJ 8B- 8G	8b-J 8e-	]
*Xtremolo	*Xtremolo	*
!!LO:LB:g=original
=65	=65	=65
!	!LO:TX:a:Bi:t=sotto voce.	!
*ped	*	*
*	*	*^
!	!	!LO:DY:b=2	!
8AAA-L	8b-L) 8e-)	fz	pp
*	*	*v	*v
8E- 8AA-	8b- 8e-	.
8E-J 8AA-	8ccJ 8e-	.
8B-L 8E- 8AA-	8dd-L 8e-	.
8B- 8E-	8f 8d-	.
*Xped	*	*
8B-J 8E-	8gJ 8d-	.
=66	=66	=66
*	*^	*
*ped	*	*Xtremolo	*
*tremolo	*	*	*
8e-L 8A- 8E-	4.b-	8cL	.
8e- 8A- 8E-	.	8c	.
8e- 8A- 8E-	.	8cJ	.
8e- 8A- 8E-	4.a-	8cL	.
8e- 8A- 8E-	.	8c	.
8e-J 8A- 8E-	.	8cJ	.
*Xped	*	*	*
*Xtremolo	*	*	*
.	.	.	.
*	*v	*v	*
=67	=67	=67
*ped	*	*
!LO:TX:t=P:problem:mixed beam	!	!
!	!	!LO:DY:b=2:rj
8AAA-L/	8r	fz
8f\ 8d-\ 8A-\ 8F\	(>8dd-L 8a-	.
8fJ\ 8d-\ 8A-\ 8F\	8ggJ 8dd- 8a-	.
*tremolo	*	*
8fL 8d- 8A- 8F	8bb-L 8dd- 8a-	.
8f 8d- 8A- 8F	8aa- 8dd- 8a-	.
8fJ 8d- 8A- 8F	8ffJ 8dd- 8a-	.
*Xtremolo	*	*
=68	=68	=68
*	*^	*
*tremolo	*	*tremolo	*
*ped	*	*	*
8gL 8d- 8B- 8G	4.ee-	8b-L 8e-	.
8g 8d- 8B- 8G	.	8b- 8e-	.
*Xped	*	*	*
8gJ 8d- 8B- 8G	.	8b-J 8e-	.
*Xtremolo	*	*	*
*tremolo	*	*	*
*ped	*	*	*
8a-L 8d- 8A-	4.ff)	8dd-L 8f	.
8a- 8d- 8A-	.	8dd- 8f	.
*Xped	*	*	*
8a-J 8d- 8A-	.	8dd-J 8f	.
*Xtremolo	*	*	*
*	*v	*v	*
=69	=69	=69
*ped	*	*
!LO:TX:t=P:problem:mixed beam	!	!
!	!	!LO:DY:b=2:rj
8AAA-L/	8r	fz
8g\ 8B-\ 8G\	(>8b-L\ 8e-	.
8gJ\ 8B-\ 8G\	8ee-J 8b-	.
*tremolo	*	*
8gL 8B- 8G	8ggL 8b-	.
8g 8B- 8G	8ff 8b-	.
*Xped	*	*
8gJ 8B- 8G	8dd-J 8b-	.
*Xtremolo	*	*
=70	=70	=70
*	*^	*
*ped	*	*	*
*tremolo	*	*	*
8g-XL 8c 8A-	4.cc	8a-L 8e-	.
8g- 8c 8A-	.	8a- 8e-	.
*Xped	*	*	*
8g-J 8c 8A-	.	8a-J 8e-	.
*ped	*	*	*
8fL 8A- 8F	4.dd-)	8a-L 8d-	.
8f 8A- 8F	.	8a- 8d-	.
*Xped	*	*	*
8fJ 8A- 8F	.	8a-J 8d-	.
*Xtremolo	*	*	*
*	*v	*v	*
!!LO:LB:g=original
=71	=71	=71
*ped	*	*
!LO:TX:t=P:problem:mixed beam	!	!
!	!	!LO:DY:b=2
8AAA-L/	8r	fz
8e-\ 8A-\ 8E-\	(>8d-L	.
8e-J\ 8A-\ 8E-\	8b-J 8d-	.
*tremolo	*	*
8e-L 8A- 8E-	8dd-L 8a- 8c	.
8e- 8A- 8E-	8cc 8a- 8c	.
*Xped	*	*
8e-J 8A- 8E-	8a-J 8f 8c	.
=72	=72	=72
*	*^	*
*ped	*	*	*
*tremolo	*	*	*
8e-L 8E-	2.b-)	8gL 8B-	.
8e- 8E-	.	8g 8B-	.
8e- 8E-	.	8g 8B-	.
8e- 8E-	.	8g 8B-	.
8e- 8E-	.	8g 8B-	.
*Xped	*	*	*
8e-J 8E-	.	8gJ 8B-	.
*Xtremolo	*	*	*
*	*v	*v	*
=73	=73	=73
*ped	*	*
!LO:TX:t=P:problem:mixed beam	!	!
!	!	!LO:DY:b=2:rj
8AAA-L/	8r	fz
8e-\ 8E-\	(>8b-L 8g 8d-	.
8e-J\ 8E-\	8ccJ 8g 8d-	.
*Xtremolo	*Xtremolo	*
8e-L 8E-	8dd-L 8g 8d-	.
8e- 8E-	8f 8d-	.
*Xped	*	*
8e-J 8E-	8gJ 8d-	.
=74	=74	=74
*	*^	*
*ped	*	*	*
*tremolo	*	*	*
8e-L 8A- 8E-	4.b-	8g-XL 8d-X	.
8e- 8A- 8E-	.	8g- 8d-	.
8e- 8A- 8E-	.	8g-J 8d-	.
8e- 8A- 8E-	4.a-	8g-L 8c	.
8e- 8A- 8E-	.	8g- 8c	.
*Xped	*	*	*
8e-J 8A- 8E-	.	8g-J) 8c	.
*Xtremolo	*	*	*
*	*v	*v	*
=75	=75	=75
*ped	*	*
!LO:TX:t=P:problem:mixed beam	!	!
!	!	!LO:DY:b=2:rj
8AAA-L/	8r	fz
8f\ 8d-\ 8A-\ 8F\	(>8dd-L 8a-	.
8fJ\ 8d-\ 8A-\ 8F\	8ggJ 8dd- 8a-	.
*tremolo	*	*
8fL 8d- 8A- 8F	8bb-L 8dd- 8a-	.
8f 8d- 8A- 8F	8aa- 8dd- 8a-	.
*Xped	*	*
8fJ 8d- 8A- 8F	8ffJ 8dd- 8a-	.
*Xtremolo	*	*
=76	=76	=76
*	*^	*
*ped	*	*	*
*tremolo	*	*tremolo	*
8gL 8d- 8B- 8G	4.ee-	8b-L 8e-	.
8g 8d- 8B- 8G	.	8b- 8e-	.
*Xped	*	*	*
8gJ 8d- 8B- 8G	.	8b-J 8e-	.
*Xtremolo	*	*	*
*tremolo	*	*	*
*ped	*	*	*
8a-L 8d- 8A-	4.ff)	8dd-L 8f	.
8a- 8d- 8A-	.	8dd- 8f	.
*Xped	*	*	*
8a-J 8d- 8A-	.	8dd-J 8f	.
*Xtremolo	*	*	*
*	*v	*v	*
=77	=77	=77
*ped	*	*
!LO:TX:t=P:problem:mixed beam	!	!
!	!	!LO:DY:b=2:rj
8AAA-L/	8r	fz
8g\ 8B-\ 8G\	(>8b-L 8e-	.
8gJ\ 8B-\ 8G\	8ee-J 8b- 8e-	.
*tremolo	*	*
8gL 8e- 8d- 8B- 8G	8ggL 8b-	.
8g 8e- 8d- 8B- 8G	8ff 8b-	.
*Xped	*	*
.	.	.
8gJ 8e- 8d- 8B- 8G	8dd-J 8b-	.
*Xtremolo	*	*
!!LO:LB:g=original
=78	=78	=78
*	*^	*
*ped	*	*	*
*tremolo	*	*	*
8g-XL 8c 8A-	4.cc	8a-L 8e-	.
8g- 8c 8A-	.	8a- 8e-	.
*Xped	*	*	*
8g-J 8c 8A-	.	8a-J 8e-	.
*Xtremolo	*	*	*
*tremolo	*	*	*
*ped	*	*	*
8fL 8A- 8F	4.dd-)	8a-L 8d-	.
8f 8A- 8F	.	8a- 8d-	.
*Xped	*	*	*
8fJ 8A- 8F	.	8a-J 8d-	.
*Xtremolo	*	*	*
*	*v	*v	*
=79	=79	=79
*ped	*	*
!LO:TX:t=P:problem:mixed beam	!	!LO:DY:rj
8AAA-L/	8r	fz
8f-X\ 8A-\ 8F-X\	(>8d-L	.
8f-J\ 8A-\ 8F-\	8a-J 8d-	.
*tremolo	*	*
8f-L 8A- 8F-	8ccL 8d-	.
8f- 8A- 8F-	8b- 8d-	.
*Xped	*	*
8f-J 8A- 8F-	8a-J 8d-	.
*Xtremolo	*	*
=80	=80	=80
*	*^	*
*ped	*	*	*
*tremolo	*	*	*
8e-L 8A- 8E-	[2.cc	8cL	.
8e- 8A- 8E-	.	8c	.
8e- 8A- 8E-	.	8c	.
8e- 8A- 8E-	.	8c	.
8e- 8A- 8E-	.	8c	.
*Xped	*	*	*
8e-J 8A- 8E-	.	8cJ	.
*Xtremolo	*	*	*
*ped	*	*	*
=81	=81	=81	=81
!LO:TX:t=P:problem:mixed beam	!	!	!
8AAA-L/	4cc]	8d-L	fz
8f-X\ 8A-\ 8F-X\	.	8d-	.
8f-J\ 8A-\ 8F-\	8a-	8d-	.
*tremolo	*	*	*
8f-L 8A- 8F-	8ccL	8d-	.
8f- 8A- 8F-	8b-	8d-	.
*Xped	*	*	*
8f-J 8A- 8F-	8a-J	8d-J	.
*Xtremolo	*	*	*
=82	=82	=82	=82
*ped	*	*	*
*tremolo	*	*	*
8e-L 8A- 8E-	[4.cc	8cL	.
8e- 8A- 8E-	.	8c	.
*Xped	*	*	*
8e-J 8A- 8E-	.	8cJ	.
*Xtremolo	*	*	*
*tremolo	*	*	*
*ped	*	*	*
8f-XL 8A- 8F-X	8ccL]	8d-L	.
8f- 8A- 8F-	8b-	8d-	.
*Xped	*	*	*
8f-J 8A- 8F-	8a-J	8d-J	.
=83	=83	=83	=83
*ped	*	*	*
*tremolo	*	*	*
8e-L 8A- 8E-	[4.cc	8cL	.
8e- 8A- 8E-	.	8c	.
8e- 8A- 8E-	.	8c	.
8e- 8A- 8E-	8ccL]	8c	.
8e- 8A- 8E-	8b-	8c	.
*Xped	*	*	*
.	.	.	.
8e-J 8A- 8E-	8a-J	8cJ	.
*Xtremolo	*	*	*
=84	=84	=84	=84
*ped	*	*	*
!LO:TX::t=P:problem:mixed beam	!	!	!
8AAA-L/	2.a-	8rB	fz
*Xtremolo	*	*Xtremolo	*
8e-\ 8A-\ 8E-\	.	8cL	.
*Xped	*	*	*
.	.	.	.
8e-J\ 8A-\ 8E-\	.	8cJ	.
*ped	*	*	*
!LO:TX:b:Bi:t=perdendosi	!	!	!
8e-L 8A- 8E-	.	8cL	.
8d- 8A- 8E-	.	8B-	.
8d-J 8A- 8E-	.	8fJ	.
*Xped	*	*	*
.	.	.	.
!!LO:LB:g=original
=85	=85	=85	=85
*ped	*	*	*
8e-L 8A- 8E-	2.a-	8cL	.
8e- 8A- 8E-	.	8c	.
8e-J 8A- 8E-	.	8cJ	.
*Xped	*	*	*
.	.	.	.
*ped	*	*	*
8e-L 8A- 8E-	.	8cL	.
8d- 8A- 8E-	.	8B-	.
8d-J 8A- 8E-	.	8fJ	.
*Xped	*	*	*
.	.	.	.
=86	=86	=86	=86
*ped	*	*	*
8e-L 8A- 8E-	4a-	4c	.
8e- 8A- 8E-	.	.	.
*Xped	*	*	*
8e-J 8G 8E-	8ryy	8B-\	.
*ped	*	*	*
8e-L 8A- 8E-	4a-	4c	.
8e- 8A- 8E-	.	.	.
*Xped	*	*	*
8e-J 8G 8E-	8ryy	8B-\	.
=87	=87	=87	=87
*ped	*	*	*
8e-L 8A- 8E-	4a-	4c	.
8e- 8A- 8E-	.	.	.
*Xped	*	*	*
8e-J 8G 8E-	8ryy	8B-\	.
*ped	*	*	*
8e-L 8A- 8E-	4a-	4c	.
8e- 8A- 8E-	.	.	.
*Xped	*	*	*
8e-J 8G 8E-	8ryy	8B-)\	.
*	*v	*v	*
=88	=88	=88
*ped	*	*
!LO:TX:t=P:problem:mixed beam	!	!
!	!	!LO:DY:b=2:rj
8AAA-L/	8r	fz
8e-\ 8A-\ 8E-\	(>8cL	.
8e-J\ 8A-\ 8E-\	8cJ	.
8e-L 8A- 8E-	8cL	.
!	!	!LO:HP:a
.	.	<
8e- 8A- 8E-	8c	.
8e-J 8A- 8E-	8cJ	.
=89	=89	=89
8e-L 8A- 8E-	8cL	.
8e- 8A- 8E-	8c	[
8e-J 8A- 8E-	8cJ	.
8e-L 8A- 8E-	8cL	.
.	8qe-/	.
!	!	!LO:HP:a
.	.	>
8A- 8E-	8d-	.
8e-J 8A- 8E-	8cJ	.
.	.	]
=90	=90	=90
2.e-;< 2.A- 2.E-	2.c;)	.
!LO:TX:b:B:t=Fine.	!	!
.	.	.
==	==	==
*-	*-	*-
!!title: @{OTL}; @{OPS} @{ONM} publisher: @{PPR}
!!!RDF**kern: > = above
!!!RDF**kern: < = below
!!!RDF**kern: N = linked
!!!RDF**dynam: > = "dim", fontstyle = "bold-italic"
!!!RDF**dynam: < = "cres.", fontstyle = "bold-italic"
!!!ENC: Marta Lawrence
!!!END: 2019-06-03
!!!EED: Emilia Ziętek
!!!EST: revision finished 2019-06-14
!!!EED2: Jędrzej Mróz
!!!EST: revision finished 2020-04-22
!!!rism-genre: Prelude
!!!rism-key: A-flat major
!!!rism-opus: op.  28, no. 17
!!!rism-title: Prelude in A-flat major op.  28, no. 17
!!!rism-permalink: https://opac.rism.info/search?id=1001013144&View=rism
!!!rism-773a-OPR: 1001013083
!!!rism-parent-permalink: https://opac.rism.info/search?id=1001013083&View=rism
